build/img/parteners/hubspot-logo.svg

<svg width="129" height="48" viewBox="0 0 129 48" fill="none" xmlns="http://www.w3.org/2000/svg">
<g style="mix-blend-mode:luminosity" clip-path="url(#clip0_333_1360)">
<path d="M14.1807 13.1064V22.1942H4.76376V13.1064H0.292969V34.7997H4.76376V26.0071H14.1807V34.7997H18.6515V13.1064H14.1807Z" fill="#33475B"/>
<path d="M32.9597 27.7869C32.9597 28.6563 32.57 29.4901 31.8764 30.1049C31.1828 30.7196 30.242 31.065 29.2611 31.065C28.2801 31.065 27.3394 30.7196 26.6457 30.1049C25.9521 29.4901 25.5624 28.6563 25.5624 27.7869V18.4953H21.3216V27.7869C21.3216 29.6513 22.1573 31.4394 23.6448 32.7578C25.1323 34.0761 27.1498 34.8168 29.2534 34.8168C31.357 34.8168 33.3745 34.0761 34.862 32.7578C36.3495 31.4394 37.1852 29.6513 37.1852 27.7869V18.4953H32.9597V27.7869Z" fill="#33475B"/>
<path d="M64.3811 19.4529C64.3811 17.5484 65.8027 16.9446 67.3601 16.9446C68.6153 16.9446 70.2735 17.7911 71.3578 18.8181L74.1353 15.9176C72.7487 14.2558 69.9362 13.1065 67.634 13.1065C63.0339 13.1065 59.7066 15.4944 59.7066 19.4529C59.7066 26.7973 69.8354 24.4676 69.8354 28.5775C69.8354 29.8453 68.4466 30.9655 66.8563 30.9655C64.3482 30.9655 63.5356 29.8783 62.3834 28.729L59.3013 31.5693C61.2728 33.7145 63.7042 34.8036 66.6176 34.8036C70.9876 34.8036 74.5033 32.3866 74.5033 28.6086C74.5033 20.4547 64.3745 22.9882 64.3745 19.4529" fill="#33475B"/>
<path d="M127.042 31.3341C124.536 31.3341 123.824 30.3731 123.824 28.9015V22.3881H127.719V19.0877H123.824V14.7331L119.525 16.4435V29.7111C119.525 33.1047 122.166 34.815 125.789 34.815C126.358 34.8242 126.925 34.7839 127.485 34.6947L128.534 31.272C128.061 31.3011 127.518 31.3302 127.042 31.3302" fill="#33475B"/>
<path d="M49.1025 18.6049C47.0018 18.6049 45.5363 19.1446 44.1191 20.3774V13.2369H39.8717V26.4715C39.8717 31.4259 43.9132 34.8195 48.4541 34.8195C53.4922 34.8195 57.9236 31.3658 57.9236 26.7141C57.9236 22.1208 53.8449 18.6068 49.1025 18.6068V18.6049ZM49.0762 31.0318C48.1231 31.0318 47.1913 30.7813 46.3988 30.312C45.6063 29.8427 44.9887 29.1757 44.6239 28.3952C44.2592 27.6148 44.1638 26.756 44.3497 25.9275C44.5356 25.099 44.9946 24.3379 45.6686 23.7406C46.3425 23.1433 47.2012 22.7365 48.136 22.5717C49.0708 22.4069 50.0398 22.4915 50.9204 22.8148C51.8009 23.138 52.5536 23.6855 53.0831 24.3878C53.6126 25.0902 53.8952 25.916 53.8952 26.7607C53.8952 27.8935 53.3875 28.9799 52.4838 29.7809C51.58 30.5818 50.3543 31.0318 49.0762 31.0318Z" fill="#33475B"/>
<path d="M95.2208 26.5153C95.2208 21.8559 90.7982 18.4099 85.7513 18.4099C81.2104 18.4099 77.169 21.8035 77.169 26.758V40.0003H81.4163V32.8501C82.8314 34.0809 84.299 34.6226 86.3975 34.6226C91.1399 34.6226 95.2186 31.1106 95.2186 26.5153H95.2208ZM91.1991 26.4687C91.1991 27.3134 90.9164 28.1392 90.3869 28.8416C89.8574 29.544 89.1047 30.0914 88.2242 30.4147C87.3436 30.7379 86.3746 30.8225 85.4398 30.6577C84.505 30.4929 83.6464 30.0861 82.9724 29.4888C82.2984 28.8915 81.8395 28.1304 81.6535 27.3019C81.4676 26.4734 81.563 25.6146 81.9277 24.8342C82.2925 24.0538 82.9102 23.3867 83.7027 22.9174C84.4952 22.4481 85.4269 22.1976 86.38 22.1976C87.6581 22.1976 88.8838 22.6476 89.7876 23.4486C90.6913 24.2495 91.1991 25.3359 91.1991 26.4687Z" fill="#33475B"/>
<path d="M108.9 18.3496V14.6066C109.458 14.3756 109.93 14.0088 110.262 13.5489C110.594 13.089 110.772 12.555 110.775 12.009V11.9216C110.772 11.1587 110.429 10.4276 109.821 9.88807C109.212 9.34858 108.387 9.04458 107.526 9.04254H107.428C106.567 9.04458 105.742 9.34858 105.133 9.88807C104.525 10.4276 104.182 11.1587 104.179 11.9216V12.009C104.182 12.555 104.36 13.089 104.692 13.5489C105.024 14.0088 105.496 14.3756 106.054 14.6066V18.3496C104.45 18.5671 102.938 19.1565 101.673 20.0581L90.0768 12.0614C90.1594 11.7976 90.2036 11.5256 90.2083 11.2519C90.2091 10.6095 89.9951 9.98128 89.5931 9.44673C89.1911 8.91217 88.6194 8.49527 87.9501 8.24873C87.2808 8.00219 86.544 7.93708 85.8329 8.06166C85.1219 8.18623 84.4685 8.49487 83.9554 8.94857C83.4422 9.40226 83.0924 9.98063 82.9502 10.6105C82.8079 11.2404 82.8796 11.8936 83.1562 12.4873C83.4328 13.0811 83.9018 13.5889 84.504 13.9464C85.1061 14.3039 85.8144 14.4952 86.5392 14.496C87.1759 14.4939 87.8006 14.3432 88.3507 14.0591L99.7522 21.9257C98.7253 23.2989 98.1895 24.9146 98.2149 26.5619C98.2403 28.2091 98.8257 29.8113 99.8946 31.1591L96.4249 34.2343C96.1463 34.1557 95.8563 34.1138 95.564 34.11C94.9683 34.11 94.386 34.2666 93.8907 34.5599C93.3954 34.8532 93.0093 35.2701 92.7814 35.7579C92.5534 36.2457 92.4938 36.7824 92.61 37.3002C92.7262 37.818 93.013 38.2937 93.4343 38.667C93.8555 39.0403 94.3922 39.2946 94.9764 39.3976C95.5607 39.5006 96.1663 39.4477 96.7166 39.2457C97.267 39.0436 97.7374 38.7015 98.0683 38.2625C98.3993 37.8235 98.5759 37.3074 98.5759 36.7794C98.5719 36.5204 98.5247 36.2633 98.4357 36.0165L101.868 32.9743C102.989 33.7328 104.29 34.2544 105.673 34.4993C107.055 34.7441 108.483 34.7058 109.846 34.3871C111.209 34.0685 112.472 33.478 113.539 32.6607C114.606 31.8434 115.447 30.8209 116 29.6713C116.553 28.5217 116.802 27.2754 116.728 26.0275C116.655 24.7796 116.26 23.5631 115.575 22.4709C114.89 21.3786 113.933 20.4395 112.776 19.7253C111.619 19.0111 110.293 18.5405 108.9 18.3496ZM107.478 30.6621C106.539 30.6621 105.621 30.4152 104.84 29.9527C104.059 29.4902 103.45 28.8329 103.091 28.0638C102.731 27.2947 102.637 26.4484 102.82 25.632C103.004 24.8155 103.456 24.0655 104.12 23.4769C104.784 22.8883 105.63 22.4874 106.552 22.325C107.473 22.1626 108.428 22.2459 109.295 22.5645C110.163 22.8831 110.905 23.4225 111.427 24.1147C111.949 24.8069 112.227 25.6206 112.227 26.4531C112.227 27.5694 111.727 28.6399 110.836 29.4293C109.946 30.2186 108.738 30.6621 107.478 30.6621Z" fill="#FF7A59"/>
</g>
<defs>
<clipPath id="clip0_333_1360">
<rect width="128.626" height="48" fill="white" transform="translate(0.292969)"/>
</clipPath>
</defs>
</svg>

<svg width="129" height="48" fill="none" xmlns="http://www.w3.org/2000/svg"><g style="mix-blend-mode:luminosity" clip-path="url(#a)"><path d="M14.18 13.106v9.088H4.765v-9.088H.293V34.8h4.47v-8.793h9.418V34.8h4.47V13.106h-4.47Zm18.78 14.681c0 .87-.39 1.703-1.084 2.318-.693.615-1.634.96-2.615.96-.98 0-1.922-.345-2.615-.96-.694-.615-1.084-1.449-1.084-2.318v-9.292h-4.24v9.292c0 1.864.835 3.652 2.323 4.97 1.487 1.32 3.505 2.06 5.608 2.06 2.104 0 4.121-.74 5.609-2.06 1.487-1.318 2.323-3.106 2.323-4.97v-9.292H32.96v9.292Zm31.421-8.334c0-1.905 1.422-2.508 2.98-2.508 1.254 0 2.912.846 3.997 1.873l2.777-2.9c-1.386-1.662-4.199-2.811-6.501-2.811-4.6 0-7.927 2.387-7.927 6.346 0 7.344 10.128 5.015 10.128 9.125 0 1.267-1.388 2.387-2.979 2.387-2.508 0-3.32-1.087-4.473-2.236l-3.082 2.84c1.972 2.146 4.403 3.235 7.317 3.235 4.37 0 7.885-2.417 7.885-6.195 0-8.154-10.129-5.62-10.129-9.156m62.668 11.881c-2.506 0-3.218-.96-3.218-2.433v-6.513h3.895v-3.3h-3.895v-4.355l-4.299 1.71v13.268c0 3.394 2.641 5.104 6.264 5.104a9.773 9.773 0 0 0 1.696-.12l1.049-3.423a25.46 25.46 0 0 1-1.492.058m-77.94-12.725c-2.1 0-3.566.54-4.983 1.772v-7.14h-4.247V26.47c0 4.955 4.041 8.348 8.582 8.348 5.038 0 9.47-3.453 9.47-8.105 0-4.593-4.08-8.107-8.822-8.107v-.002Zm-.026 12.427a5.27 5.27 0 0 1-2.677-.72c-.793-.47-1.41-1.136-1.775-1.917a3.823 3.823 0 0 1-.274-2.468 4.145 4.145 0 0 1 1.319-2.186 5.038 5.038 0 0 1 2.467-1.17 5.396 5.396 0 0 1 2.784.244c.88.323 1.634.87 2.163 1.573a3.93 3.93 0 0 1 .812 2.373c0 1.133-.508 2.219-1.411 3.02-.904.8-2.13 1.25-3.408 1.25Zm46.144-4.517c0-4.66-4.422-8.105-9.469-8.105-4.54 0-8.582 3.393-8.582 8.348V40h4.247v-7.15c1.415 1.23 2.883 1.773 4.981 1.773 4.743 0 8.822-3.512 8.822-8.108h.002Zm-4.02-.046c0 .844-.284 1.67-.813 2.373a4.742 4.742 0 0 1-2.163 1.573c-.88.323-1.85.408-2.784.243a5.038 5.038 0 0 1-2.468-1.17 4.146 4.146 0 0 1-1.319-2.186 3.823 3.823 0 0 1 .275-2.468c.365-.78.982-1.447 1.775-1.917a5.27 5.27 0 0 1 2.677-.72c1.278 0 2.504.45 3.408 1.252.903.8 1.411 1.887 1.411 3.02Z" fill="#33475B"/><path d="M108.9 18.35v-3.743a3.163 3.163 0 0 0 1.362-1.058c.332-.46.51-.994.513-1.54v-.087c-.003-.763-.346-1.494-.954-2.034-.609-.54-1.434-.843-2.295-.845h-.098c-.861.002-1.686.306-2.295.845-.608.54-.951 1.27-.954 2.034v.087c.003.546.181 1.08.513 1.54.332.46.804.827 1.362 1.058v3.743a9.833 9.833 0 0 0-4.381 1.708l-11.596-7.997c.082-.263.127-.535.131-.81a2.989 2.989 0 0 0-.615-1.804 3.604 3.604 0 0 0-1.643-1.198 4.103 4.103 0 0 0-2.117-.187 3.832 3.832 0 0 0-1.878.887 3.153 3.153 0 0 0-1.005 1.662c-.142.63-.07 1.283.206 1.876a3.366 3.366 0 0 0 1.348 1.46 4.006 4.006 0 0 0 3.847.112l11.401 7.867c-1.027 1.373-1.563 2.989-1.537 4.636.025 1.647.61 3.25 1.68 4.597l-3.47 3.075a3.333 3.333 0 0 0-.861-.124c-.596 0-1.178.157-1.673.45-.496.293-.882.71-1.11 1.198a2.389 2.389 0 0 0-.171 1.542c.116.518.403.994.824 1.367.422.373.958.628 1.542.73a3.37 3.37 0 0 0 1.74-.151 2.963 2.963 0 0 0 1.352-.983c.331-.44.508-.956.508-1.484a2.353 2.353 0 0 0-.14-.763l3.432-3.042a9.862 9.862 0 0 0 3.805 1.525 10.4 10.4 0 0 0 4.173-.112 9.706 9.706 0 0 0 3.693-1.726A8.332 8.332 0 0 0 116 29.67a7.377 7.377 0 0 0 .728-3.643 7.512 7.512 0 0 0-1.153-3.557 8.645 8.645 0 0 0-2.799-2.746 9.963 9.963 0 0 0-3.876-1.375Zm-1.422 12.312a5.192 5.192 0 0 1-2.638-.71c-.781-.462-1.39-1.12-1.749-1.888a3.765 3.765 0 0 1-.271-2.432 4.092 4.092 0 0 1 1.3-2.155 4.962 4.962 0 0 1 2.432-1.152 5.313 5.313 0 0 1 2.743.24c.868.318 1.61.857 2.132 1.55.522.692.8 1.506.8 2.338 0 1.116-.5 2.187-1.391 2.976-.89.79-2.098 1.233-3.358 1.233Z" fill="#FF7A59"/></g><defs><clipPath id="a"><path fill="#fff" transform="translate(.293)" d="M0 0h128.626v48H0z"/></clipPath></defs></svg>
